public/icons/error.svg

<?xml version="1.0" standalone="no"?>
<!DOCTYPE svg PUBLIC "-//W3C//DTD SVG 20010904//EN"
 "http://www.w3.org/TR/2001/REC-SVG-20010904/DTD/svg10.dtd">
<svg version="1.0" xmlns="http://www.w3.org/2000/svg"
 width="600.000000pt" height="600.000000pt" viewBox="0 0 600.000000 600.000000"
 preserveAspectRatio="xMidYMid meet">

<g transform="translate(0.000000,600.000000) scale(0.100000,-0.100000)"
fill="#000000" stroke="none">
<path d="M0 3000 l0 -3000 3000 0 3000 0 0 3000 0 3000 -3000 0 -3000 0 0
-3000z m5838 -2 l-3 -2833 -2832 -3 -2833 -2 0 2835 0 2835 2835 0 2835 0 -2
-2832z"/>
<path d="M773 5250 c-14 -6 -24 -21 -28 -42 -3 -18 -4 -1024 -3 -2235 2 -1790
5 -2204 16 -2215 19 -19 4465 -19 4484 0 19 19 19 4465 0 4484 -11 11 -426 13
-2230 15 -1272 1 -2226 -2 -2239 -7z m4437 -2275 l0 -2185 -2185 0 -2185 0 0
2178 c0 1198 3 2182 7 2185 3 4 987 7 2185 7 l2178 0 0 -2185z"/>
<path d="M2434 3566 c-38 -38 -44 -78 -20 -124 8 -15 114 -126 235 -247 l221
-220 -219 -220 c-120 -121 -226 -231 -235 -245 -44 -67 11 -160 95 -160 43 0
44 1 279 235 l235 235 220 -221 c121 -121 232 -227 247 -235 76 -40 157 9 158
95 l0 44 -235 236 -234 236 234 235 c234 235 235 236 235 279 0 84 -93 139
-160 95 -14 -9 -124 -115 -245 -235 l-220 -219 -220 221 c-121 121 -232 227
-247 235 -46 24 -86 18 -124 -20z"/>
</g>
</svg>

<?xml version="1.0" encoding="UTF-8" standalone="no" ?>
<!DOCTYPE svg PUBLIC "-//W3C//DTD SVG 1.1//EN" "http://www.w3.org/Graphics/SVG/1.1/DTD/svg11.dtd">
<svg xmlns="http://www.w3.org/2000/svg" xmlns:xlink="http://www.w3.org/1999/xlink" version="1.1" width="1080" height="1080" viewBox="0 0 1080 1080" xml:space="preserve">
<desc>Created with Fabric.js 5.2.4</desc>
<defs>
</defs>
<rect x="0" y="0" width="100%" height="100%" fill="transparent"></rect>
<g transform="matrix(1 0 0 1 540 540)" id="2d831029-7c52-4772-85d0-2cc7e614e5d8"  >
</g>
<g transform="matrix(1 0 0 1 540 540)" id="d6168086-9d48-4895-8a10-8bb75ebf5a68"  >
<rect style="stroke: none; stroke-width: 1; stroke-dasharray: none; stroke-linecap: butt; stroke-dashoffset: 0; stroke-linejoin: miter; stroke-miterlimit: 4; fill: rgb(255,255,255); fill-rule: nonzero; opacity: 1; visibility: hidden;" vector-effect="non-scaling-stroke"  x="-540" y="-540" rx="0" ry="0" width="1080" height="1080" />
</g>
<g transform="matrix(0 0 0 0 0 0)"  >
<g style=""   >
</g>
</g>
<g transform="matrix(0 0 0 0 0 0)"  >
<g style=""   >
</g>
</g>
<g transform="matrix(0 0 0 0 0 0)"  >
<g style=""   >
</g>
</g>
<g transform="matrix(0 0 0 0 0 0)"  >
<g style=""   >
</g>
</g>
<g transform="matrix(0 0 0 0 0 0)"  >
<g style=""   >
</g>
</g>
<g transform="matrix(0 0 0 0 0 0)"  >
<g style=""   >
</g>
</g>
<g transform="matrix(0 0 0 0 0 0)"  >
<g style=""   >
</g>
</g>
<g transform="matrix(0 0 0 0 0 0)"  >
<g style=""   >
</g>
</g>
<g transform="matrix(0 0 0 0 0 0)"  >
<g style=""   >
</g>
</g>
<g transform="matrix(0 0 0 0 0 0)"  >
<g style=""   >
</g>
</g>
<g transform="matrix(0 0 0 0 0 0)"  >
<g style=""   >
</g>
</g>
<g transform="matrix(0 0 0 0 0 0)"  >
<g style=""   >
</g>
</g>
<g transform="matrix(0 0 0 0 0 0)"  >
<g style=""   >
</g>
</g>
<g transform="matrix(1 0 0 1 540 540)"  >
<g style="" vector-effect="non-scaling-stroke"   >
		<g transform="matrix(0.13 0 0 -0.13 0 0)"  >
<path style="stroke: none; stroke-width: 1; stroke-dasharray: none; stroke-linecap: butt; stroke-dashoffset: 0; stroke-linejoin: miter; stroke-miterlimit: 4; fill: rgb(251,150,56); fill-rule: nonzero; opacity: 1;" vector-effect="non-scaling-stroke"  transform=" translate(-3000, -3000)" d="M 0 3000 L 0 0 L 3000 0 L 6000 0 L 6000 3000 L 6000 6000 L 3000 6000 L 0 6000 L 0 3000 z M 5838 2998 L 5835 165 L 3003 162 L 170 160 L 170 2995 L 170 5830 L 3005 5830 L 5840 5830 L 5838 2998 z" stroke-linecap="round" />
</g>
		<g transform="matrix(0.13 0 0 -0.13 -0.14 -0.06)"  >
<path style="stroke: none; stroke-width: 1; stroke-dasharray: none; stroke-linecap: butt; stroke-dashoffset: 0; stroke-linejoin: miter; stroke-miterlimit: 4; fill: rgb(251,150,56); fill-rule: nonzero; opacity: 1;" vector-effect="non-scaling-stroke"  transform=" translate(-2998.94, -3000.47)" d="M 773 5250 C 759 5244 749 5229 745 5208 C 742 5190 741 4184 742 2973 C 744 1183 747 769 758 758 C 777 739 5223 739 5242 758 C 5261 777 5261 5223 5242 5242 C 5231 5253 4816 5255 3012 5257 C 1740 5258 786 5255 773 5250 z M 5210 2975 L 5210 790 L 3025 790 L 840 790 L 840 2968 C 840 4166 843 5150 847 5153 C 850 5157 1834 5160 3032 5160 L 5210 5160 L 5210 2975 z" stroke-linecap="round" />
</g>
		<g transform="matrix(0.13 0 0 -0.13 3.32 3.32)"  >
<path style="stroke: none; stroke-width: 1; stroke-dasharray: none; stroke-linecap: butt; stroke-dashoffset: 0; stroke-linejoin: miter; stroke-miterlimit: 4; fill: rgb(251,150,56); fill-rule: nonzero; opacity: 1;" vector-effect="non-scaling-stroke"  transform=" translate(-3024.86, -2975.07)" d="M 2434 3566 C 2396 3528 2390 3488 2414 3442 C 2422 3427 2528 3316 2649 3195 L 2870 2975 L 2651 2755 C 2531 2634 2425 2524 2416 2510 C 2372 2443 2427 2350 2511 2350 C 2554 2350 2555 2351 2790 2585 L 3025 2820 L 3245 2599 C 3366 2478 3477 2372 3492 2364 C 3568 2324 3649 2373 3650 2459 L 3650 2503 L 3415 2739 L 3181 2975 L 3415 3210 C 3649 3445 3650 3446 3650 3489 C 3650 3573 3557 3628 3490 3584 C 3476 3575 3366 3469 3245 3349 L 3025 3130 L 2805 3351 C 2684 3472 2573 3578 2558 3586 C 2512 3610 2472 3604 2434 3566 z" stroke-linecap="round" />
</g>
</g>
</g>
<g transform="matrix(NaN NaN NaN NaN 0 0)"  >
<g style=""   >
</g>
</g>
</svg>
